**harmony	**harte	**kern	**silbe	**kern	**silbe	**rhyme	**timestamp	**phrase
*M4/4	*M4/4	*ICvox	*	*ICvox	*	*	*	*
*	*	*VRlead	*	*VRbacking	*	*	*	*
*	*	*Hstimme	*	*Nstimme	*	*	*	*
*F:	*F:	*F:	*	*F:	*	*	*	*
*	*	*M4/4	*	*M4/4	*	*	*	*
*	*	*clefG2	*	*clefG2	*	*	*	*
1r;	1r	r;	.	r;	.	.	0	.
=1	=1	=1	=1	=1	=1	=1	=1	=1
*>Letter>D	*>Letter>D	*>Letter>D	*>Letter>D	*>Letter>D	*>Letter>D	*>Letter>D	*>Letter>D	*>Letter>D
*>Label>Intro	*>Label>Intro	*>Label>Intro	*>Label>Intro	*>Label>Intro	*>Label>Intro	*>Label>Intro	*>Label>Intro	*>Label>Intro
4FM	F:maj	1r	.	1r	.	.	0.232	newline
4CM	C:maj/3	.	.	.	.	.	1.199	.
4Dm	D:min	.	.	.	.	.	2.166	.
4Dm	D:min/b7	.	.	.	.	.	3.132	.
=2	=2	=2	=2	=2	=2	=2	=2	=2
4B-M	B-:maj	1r	.	1r	.	.	4.099	.
4CM	C:maj	.	.	.	.	.	5.066	.
2FM	F:maj	.	.	.	.	.	6.032	.
=3	=3	=3	=3	=3	=3	=3	=3	=3
*>Letter>B	*>Letter>B	*>Letter>B	*>Letter>B	*>Letter>B	*>Letter>B	*>Letter>B	*>Letter>B	*>Letter>B
*>Label>Verse	*>Label>Verse	*>Label>Verse	*>Label>Verse	*>Label>Verse	*>Label>Verse	*>Label>Verse	*>Label>Verse	*>Label>Verse
4Gmm	G:min7	16G	When	1r	.	.	7.966	newline
.	.	8G	are	.	.	.	.	.
.	.	16G	you	.	.	.	.	.
4B-M	B-:maj	16B-	gon-	.	.	.	8.947	.
.	.	16B-	-na	.	.	.	.	.
.	.	8d	come	.	.	.	.	.
2CM	C:maj	4e	down	.	.	.	9.928	.
.	.	4r	.	.	.	.	.	.
=4	=4	=4	=4	=4	=4	=4	=4	=4
4FM	F:maj	16A	When	1r	.	.	11.89	.
.	.	8A	are	.	.	.	.	.
.	.	16A	you	.	.	.	.	.
4FM	F:maj/3	16c	go-	.	.	.	12.871	.
.	.	16c	-ing	.	.	.	.	.
.	.	16c	to	.	.	.	.	.
.	.	[16d	land	.	.	A	.	.
2B-M	B-:maj	4d]	_	.	.	.	13.852	.
.	.	8r	.	.	.	.	.	.
.	.	16r	.	.	.	.	.	.
.	.	16F	I	.	.	.	.	.
=5	=5	=5	=5	=5	=5	=5	=5	=5
2E-M	E-:maj	16G	should	1r	.	.	15.814	newline
.	.	8G	have	.	.	.	.	.
.	.	[16B-	stayed	.	.	.	.	.
.	.	16B-]	_	.	.	.	.	.
.	.	16B-	on	.	.	.	.	.
.	.	16B-	the	.	.	.	.	.
.	.	[16c	farm	.	.	.	.	.
2CMm	C:7/3	8c]	_	.	.	.	17.799	.
.	.	16r	.	.	.	.	.	.
.	.	16A	I	.	.	.	.	.
.	.	16B-	should	.	.	.	.	.
.	.	8.G	have	.	.	.	.	.
=6	=6	=6	=6	=6	=6	=6	=6	=6
1FM	F:maj	16F	lis-	1r	.	.	19.784	.
.	.	16F	-tened	.	.	.	.	.
.	.	16F	to	.	.	.	.	.
.	.	[16A	my	.	.	.	.	.
.	.	16A]	_	.	.	.	.	.
.	.	16F	old	.	.	.	.	.
.	.	8f	man	.	.	A	.	.
.	.	4r	.	.	.	.	.	.
.	.	8r	.	.	.	.	.	.
.	.	16r	.	.	.	.	.	.
.	.	16d	You	.	.	.	.	.
=7	=7	=7	=7	=7	=7	=7	=7	=7
4Gmm	G:min7	16b-	know	1r	.	.	23.754	newline
.	.	16b-	you	.	.	.	.	.
.	.	16b-	can't	.	.	.	.	.
.	.	[16b-	hold	.	.	.	.	.
4B-M	B-:maj	16b-]	_	.	.	.	24.736	.
.	.	16d	me	.	.	.	.	.
.	.	16d	fo-	.	.	.	.	.
.	.	[16d	-re-	.	.	.	.	.
2CM	C:maj	16d]	_	.	.	.	25.718	.
.	.	8.e	-ver	.	.	.	.	.
.	.	8.r	.	.	.	.	.	.
.	.	16G	I	.	.	.	.	.
=8	=8	=8	=8	=8	=8	=8	=8	=8
4FM	F:maj	16A	did-	1r	.	.	27.682	.
.	.	16A	-n't	.	.	.	.	.
.	.	16A	sign	.	.	.	.	.
.	.	[16c	up	.	.	.	.	.
4FM	F:maj/3	16c]	_	.	.	.	28.664	.
.	.	16c	with	.	.	.	.	.
.	.	[8d	you	.	.	B	.	.
2B-M	B-:maj	8d]	_	.	.	.	29.646	.
.	.	8r	.	.	.	.	.	.
.	.	8.r	.	.	.	.	.	.
.	.	16E-	I'm	.	.	.	.	.
=9	=9	=9	=9	=9	=9	=9	=9	=9
2E-M	E-:maj	8G	not	1r	.	.	31.61	newline
.	.	16G	a	.	.	.	.	.
.	.	[16B-	pre-	.	.	.	.	.
.	.	16B-]	_	.	.	.	.	.
.	.	16B-	-sent	.	.	.	.	.
.	.	16B-	for	.	.	.	.	.
.	.	16B-	your	.	.	.	.	.
2CMm	C:7/3	8c	friends	.	.	.	33.561	.
.	.	16d	to	.	.	.	.	.
.	.	[16c	o-	.	.	.	.	.
.	.	16c]	_	.	.	.	.	.
.	.	16G	-pen	.	.	.	.	.
.	.	16r	.	.	.	.	.	.
.	.	16E	This	.	.	.	.	.
=10	=10	=10	=10	=10	=10	=10	=10	=10
1FM	F:maj	8F	boy's	1r	.	.	35.512	.
.	.	16F	too	.	.	.	.	.
.	.	[16F	young	.	.	.	.	.
.	.	16F]	_	.	.	.	.	.
.	.	16G	to	.	.	.	.	.
.	.	8E	be	.	.	.	.	.
.	.	16F	sing-	.	.	.	.	.
.	.	8.A	-ing,	.	.	.	.	.
.	.	8r	.	.	.	.	.	.
.	.	8c	the	.	.	.	.	.
=11	=11	=11	=11	=11	=11	=11	=11	=11
*>Letter>C	*>Letter>C	*>Letter>C	*>Letter>C	*>Letter>C	*>Letter>C	*>Letter>C	*>Letter>C	*>Letter>C
*>Label>Chorus	*>Label>Chorus	*>Label>Chorus	*>Label>Chorus	*>Label>Chorus	*>Label>Chorus	*>Label>Chorus	*>Label>Chorus	*>Label>Chorus
2B-m	B-:min	4dd-	blues	1r	.	B	39.413	newline
.	.	4f	_	.	.	.	.	.
2E-M	E-:maj	4.g	_	.	.	.	41.401	.
.	.	8r	.	.	.	.	.	.
=12	=12	=12	=12	=12	=12	=12	=12	=12
2A-M	A-:maj	1r	.	8.cc	Aah	.	43.389	.
.	.	.	.	16b-	_	.	.	.
.	.	.	.	8a-	_	.	.	.
.	.	.	.	8g	_	.	.	.
2D-M	D-:maj	.	.	4f	_	.	45.377	.
.	.	.	.	4r	.	.	.	.
=13	=13	=13	=13	=13	=13	=13	=13	=13
2B-m	B-:min	2r	.	4dd-	Aah	.	47.365	newline
.	.	.	.	4f	_	.	.	.
2CMm	C:7	4r	.	2g	_	.	49.345	.
.	.	8r	.	.	.	.	.	.
.	.	8c	So	.	.	.	.	.
=14	=14	=14	=14	=14	=14	=14	=14	=14
*>Letter>D	*>Letter>D	*>Letter>D	*>Letter>D	*>Letter>D	*>Letter>D	*>Letter>D	*>Letter>D	*>Letter>D
*>Label>Chorus	*>Label>Chorus	*>Label>Chorus	*>Label>Chorus	*>Label>Chorus	*>Label>Chorus	*>Label>Chorus	*>Label>Chorus	*>Label>Chorus
2FM	F:maj	16f	good-	2a	_	.	51.326	newline
.	.	8.f	-bye	.	.	.	.	.
.	.	16f	ye-	.	.	.	.	.
.	.	16c	-llow	.	.	.	.	.
.	.	8A	brick	.	.	.	.	.
2AMm	A:7	4e	road	2r	.	.	53.284	.
.	.	8r	.	.	.	.	.	.
.	.	16c#	Where	.	.	.	.	.
.	.	16c#	the	.	.	.	.	.
=15	=15	=15	=15	=15	=15	=15	=15	=15
2B-M	B-:maj	16d	dogs	1r	.	.	55.242	.
.	.	8d	of	.	.	.	.	.
.	.	16c#	so-	.	.	.	.	.
.	.	16d	-ci-	.	.	.	.	.
.	.	16B-	-e-	.	.	.	.	.
.	.	16F	-ty	.	.	.	.	.
.	.	[16A	howl	.	.	C	.	.
2FM	F:maj	4A]	_	.	.	.	57.2	.
.	.	8.r	.	.	.	.	.	.
.	.	16d	You	.	.	.	.	.
=16	=16	=16	=16	=16	=16	=16	=16	=16
2DMm	D:7	16a	can't	1r	.	.	59.159	newline
.	.	16r	.	.	.	.	.	.
.	.	16a	plant	.	.	.	.	.
.	.	16r	.	.	.	.	.	.
.	.	16a	me	.	.	.	.	.
.	.	16b-	in	.	.	.	.	.
.	.	16a	your	.	.	.	.	.
.	.	16g	pen-	.	.	.	.	.
2Gmm	G:min7	16r	.	.	.	.	61.109	.
.	.	8.d	-thouse	.	.	.	.	.
.	.	8r	.	.	.	.	.	.
.	.	16r	.	.	.	.	.	.
.	.	16d	I'm	.	.	.	.	.
=17	=17	=17	=17	=17	=17	=17	=17	=17
2CM	C:maj	16e	go-	1r	.	.	63.06	.
.	.	8e	-ing	.	.	.	.	.
.	.	[16e	back	.	.	.	.	.
.	.	16e]	_	.	.	.	.	.
.	.	16f	to	.	.	.	.	.
.	.	8g	my	.	.	.	.	.
4FM	F:maj	4f	plough	.	.	C	65.01	.
4CM	C:maj/3	8r	.	.	.	.	65.985	.
.	.	16r	.	.	.	.	.	.
.	.	[16a	Back	.	.	.	.	.
=18	=18	=18	=18	=18	=18	=18	=18	=18
2Dmm	D:min7	16a]	_	1r	.	.	66.961	newline
.	.	8a	to	.	.	.	.	.
.	.	16a	the	.	.	.	.	.
.	.	16f	how-	.	.	C	.	.
.	.	16d	-ling	.	.	.	.	.
.	.	16A	old	.	.	.	.	.
.	.	[16e	owl	.	.	C	.	.
2AMm	A:7	16e]	_	.	.	.	68.945	.
.	.	16e	in	.	.	.	.	.
.	.	16e	the	.	.	.	.	.
.	.	[16e	woods	.	.	.	.	.
.	.	16e]	_	.	.	.	.	.
.	.	16r	.	.	.	.	.	.
.	.	8r	.	.	.	.	.	.
=19	=19	=19	=19	=19	=19	=19	=19	=19
*M2/4	*M2/4	*M2/4	*	*M2/4	*	*	*M2/4	*M2/4
2B-M	B-:maj	16f	Hun-	2r	.	.	70.929	.
.	.	16f	-ting	.	.	.	.	.
.	.	16f	the	.	.	.	.	.
.	.	[16d	hor-	.	.	.	.	.
.	.	16d]	_	.	.	.	.	.
.	.	16B-	-ny	.	.	.	.	.
.	.	8F	back	.	.	.	.	.
=20	=20	=20	=20	=20	=20	=20	=20	=20
*M4/4	*M4/4	*M4/4	*	*M4/4	*	*	*M4/4	*M4/4
1D-M	D-:maj	4.A-	toad	1r	.	D	72.914	.
.	.	8r	.	.	.	.	.	.
.	.	4r	.	.	.	.	.	.
.	.	16A-	Oh	.	.	.	.	.
.	.	8G	I've	.	.	.	.	.
.	.	[16F	fina-	.	.	.	.	.
=21	=21	=21	=21	=21	=21	=21	=21	=21
4FM	F:maj	16F]	_	1r	.	.	76.883	newline
.	.	16F	-lly	.	.	.	.	.
.	.	16F	de-	.	.	.	.	.
.	.	[16A	-ci-	.	.	.	.	.
4CM	C:maj/3	16A]	_	.	.	.	77.871	.
.	.	16A	-ded	.	.	.	.	.
.	.	8c	my	.	.	.	.	.
4Dm	D:min	16f	fu-	.	.	.	78.859	.
.	.	16f	-ture	.	.	.	.	.
.	.	8f	life	.	.	.	.	.
4Dm	D:min/b7	8r	.	.	.	.	79.847	.
.	.	16r	.	.	.	.	.	.
.	.	16d	Be-	.	.	.	.	.
=22	=22	=22	=22	=22	=22	=22	=22	=22
*M2/4	*M2/4	*M2/4	*	*M2/4	*	*	*M2/4	*M2/4
4B-M	B-:maj	8.f	-yond	2r	.	.	80.835	.
.	.	16f	the	.	.	.	.	.
4CM	C:maj	16f	yel-	.	.	.	81.823	.
.	.	16g	-low	.	.	.	.	.
.	.	8e	brick	.	.	.	.	.
=23	=23	=23	=23	=23	=23	=23	=23	=23
*>Letter>C	*>Letter>C	*>Letter>C	*>Letter>C	*>Letter>C	*>Letter>C	*>Letter>C	*>Letter>C	*>Letter>C
*>Label>Chorus	*>Label>Chorus	*>Label>Chorus	*>Label>Chorus	*>Label>Chorus	*>Label>Chorus	*>Label>Chorus	*>Label>Chorus	*>Label>Chorus
*M4/4	*M4/4	*	*	*	*	*	*M4/4	*M4/4
2B-m	B-:min	4f	road	4dd-	Aah	D	82.811	newline
.	.	4r	.	4f	_	.	.	.
2E-M	E-:maj	2r	.	4.g	_	.	84.806	.
.	.	.	.	8r	.	.	.	.
=24	=24	=24	=24	=24	=24	=24	=24	=24
2A-M	A-:maj	1r	.	8.cc	Aah	.	86.802	.
.	.	.	.	16b-	_	.	.	.
.	.	.	.	8a-	_	.	.	.
.	.	.	.	8g	_	.	.	.
2D-M	D-:maj	.	.	4f	_	.	88.797	.
.	.	.	.	4r	.	.	.	.
=25	=25	=25	=25	=25	=25	=25	=25	=25
2B-m	B-:min	1r	.	4dd-	Aah	.	90.792	newline
.	.	.	.	4f	_	.	.	.
2CMm	C:7	.	.	2g	_	.	92.769	.
=26	=26	=26	=26	=26	=26	=26	=26	=26
1FM	F:maj	1r	.	2a	Aah	.	94.747	.
.	.	.	.	2r	.	.	.	.
=27	=27	=27	=27	=27	=27	=27	=27	=27
*>Letter>B	*>Letter>B	*>Letter>B	*>Letter>B	*>Letter>B	*>Letter>B	*>Letter>B	*>Letter>B	*>Letter>B
*>Label>Verse	*>Label>Verse	*>Label>Verse	*>Label>Verse	*>Label>Verse	*>Label>Verse	*>Label>Verse	*>Label>Verse	*>Label>Verse
4Gmm	G:min7	16G	What	1r	.	.	98.701	newline
.	.	8G	do	.	.	.	.	.
.	.	16G	you	.	.	.	.	.
4B-M	B-:maj	8B-	think	.	.	.	99.711	.
.	.	16B-	you'll	.	.	.	.	.
.	.	[16e	do	.	.	.	.	.
2CM	C:maj	16e]	then?	.	.	.	100.722	.
.	.	8.c	_	.	.	.	.	.
.	.	8r	.	.	.	.	.	.
.	.	16r	.	.	.	.	.	.
.	.	16F	I	.	.	.	.	.
=28	=28	=28	=28	=28	=28	=28	=28	=28
4FM	F:maj	16A	bet	1r	.	.	102.743	.
.	.	16A	that'll	.	.	.	.	.
.	.	16A	shoot	.	.	.	.	.
.	.	[16c	down	.	.	.	.	.
4FM	F:maj/3	16c]	_	.	.	.	103.754	.
.	.	16c	the	.	.	.	.	.
.	.	[8d	pla-	.	.	(E	.	.
2B-M	B-:maj	8d]	-ne	.	.	E)	104.765	.
.	.	8r	.	.	.	.	.	.
.	.	8r	.	.	.	.	.	.
.	.	16E-	It	.	.	.	.	.
.	.	16E-	will	.	.	.	.	.
=29	=29	=29	=29	=29	=29	=29	=29	=29
2E-M	E-:maj	16G	take	1r	.	.	106.786	newline
.	.	16G	you	.	.	.	.	.
.	.	16G	a	.	.	.	.	.
.	.	[16B-	cou-	.	.	.	.	.
.	.	16B-]	_	.	.	.	.	.
.	.	16B-	-ple	.	.	.	.	.
.	.	16B-	of	.	.	.	.	.
.	.	[16c	vod-	.	.	.	.	.
2CMm	C:7/3	16c]	_	.	.	.	108.773	.
.	.	16c	-ka	.	.	.	.	.
.	.	16d	and	.	.	.	.	.
.	.	[16c	to-	.	.	.	.	.
.	.	16c]	_	.	.	.	.	.
.	.	16G	-nics	.	.	.	.	.
.	.	16r	.	.	.	.	.	.
.	.	16F	To	.	.	.	.	.
=30	=30	=30	=30	=30	=30	=30	=30	=30
1FM	F:maj	16F	set	1r	.	.	110.76	.
.	.	16F	you	.	.	.	.	.
.	.	16F	on	.	.	.	.	.
.	.	16F	your	.	.	.	.	.
.	.	16A	feet	.	.	.	.	.
.	.	16c	a-	.	.	.	.	.
.	.	[8f	-gain	.	.	E	.	.
.	.	8f]	_	.	.	.	.	.
.	.	8r	.	.	.	.	.	.
.	.	4r	.	.	.	.	.	.
=31	=31	=31	=31	=31	=31	=31	=31	=31
4Gmm	G:min7	16b-	May-	1r	.	.	114.734	newline
.	.	16b-	-be	.	.	.	.	.
.	.	16b-	you'll	.	.	.	.	.
.	.	[16b-	get	.	.	.	.	.
4B-M	B-:maj	16b-]	_	.	.	.	115.732	.
.	.	16d	a	.	.	.	.	.
.	.	16d	rep-	.	.	.	.	.
.	.	[16d	-lace-	.	.	.	.	.
2CM	C:maj	16d]	_	.	.	.	116.729	.
.	.	8.e	-ment	.	.	.	.	.
.	.	8.r	.	.	.	.	.	.
.	.	16G	There's	.	.	.	.	.
=32	=32	=32	=32	=32	=32	=32	=32	=32
4FM	F:maj	16A	plen-	1r	.	.	118.724	.
.	.	16A	-ty	.	.	.	.	.
.	.	16A	like	.	.	.	.	.
.	.	[16c	me	.	.	.	.	.
4FM	F:maj/3	16c]	_	.	.	.	119.722	.
.	.	16c	to	.	.	.	.	.
.	.	16c	be	.	.	.	.	.
.	.	[16d	found	.	.	B	.	.
2B-M	B-:maj	8d]	_	.	.	.	120.719	.
.	.	8r	.	.	.	.	.	.
.	.	4r	.	.	.	.	.	.
=33	=33	=33	=33	=33	=33	=33	=33	=33
2E-M	E-:maj	16G	Mon-	1r	.	.	122.714	newline
.	.	8.G	-grels	.	.	.	.	.
.	.	8r	.	.	.	.	.	.
.	.	16B-	who	.	.	.	.	.
.	.	[16c	ain't	.	.	.	.	.
2CMm	C:7/3	16c]	_	.	.	.	124.711	.
.	.	16c	got	.	.	.	.	.
.	.	16d	a	.	.	.	.	.
.	.	[16c	pen-	.	.	.	.	.
.	.	16c]	_	.	.	.	.	.
.	.	16G	-ny	.	.	.	.	.
.	.	8r	.	.	.	.	.	.
=34	=34	=34	=34	=34	=34	=34	=34	=34
1FM	F:maj	16F	Snif-	1r	.	.	126.708	.
.	.	16F	-fing	.	.	.	.	.
.	.	16F	for	.	.	.	.	.
.	.	[16F	tid-	.	.	.	.	.
.	.	16F]	_	.	.	.	.	.
.	.	16G	-bits	.	.	.	.	.
.	.	8E	like	.	.	.	.	.
.	.	8F	you	.	.	.	.	.
.	.	8r	.	.	.	.	.	.
.	.	8A	on	.	.	.	.	.
.	.	8c	the	.	.	.	.	.
=35	=35	=35	=35	=35	=35	=35	=35	=35
*>Letter>C	*>Letter>C	*>Letter>C	*>Letter>C	*>Letter>C	*>Letter>C	*>Letter>C	*>Letter>C	*>Letter>C
*>Label>Chorus	*>Label>Chorus	*>Label>Chorus	*>Label>Chorus	*>Label>Chorus	*>Label>Chorus	*>Label>Chorus	*>Label>Chorus	*>Label>Chorus
2B-m	B-:min	4dd-	ground	1r	.	B	130.701	newline
.	.	4f	_	.	.	.	.	.
2E-M	E-:maj	4.g	_	.	.	.	132.717	.
.	.	8r	.	.	.	.	.	.
=36	=36	=36	=36	=36	=36	=36	=36	=36
2A-M	A-:maj	1r	.	8.cc	Aah	.	134.733	.
.	.	.	.	16b-	_	.	.	.
.	.	.	.	8a-	_	.	.	.
.	.	.	.	8g	_	.	.	.
2D-M	D-:maj	.	.	4f	_	.	136.748	.
.	.	.	.	4r	.	.	.	.
=37	=37	=37	=37	=37	=37	=37	=37	=37
2B-m	B-:min	2r	.	4dd-	Aah	.	138.764	newline
.	.	.	.	4f	_	.	.	.
2CMm	C:7	4r	.	2g	_	.	140.785	.
.	.	8r	.	.	.	.	.	.
.	.	8c	So	.	.	.	.	.
=38	=38	=38	=38	=38	=38	=38	=38	=38
*>Letter>D	*>Letter>D	*>Letter>D	*>Letter>D	*>Letter>D	*>Letter>D	*>Letter>D	*>Letter>D	*>Letter>D
*>Label>Chorus	*>Label>Chorus	*>Label>Chorus	*>Label>Chorus	*>Label>Chorus	*>Label>Chorus	*>Label>Chorus	*>Label>Chorus	*>Label>Chorus
2FM	F:maj	16f	good-	2a	Aah	.	142.807	newline
.	.	8.f	-bye	.	.	.	.	.
.	.	16f	ye-	.	.	.	.	.
.	.	16c	-llow	.	.	.	.	.
.	.	8A	brick	.	.	.	.	.
2AMm	A:7	4e	road	2r	.	.	144.786	.
.	.	8r	.	.	.	.	.	.
.	.	16c#	Where	.	.	.	.	.
.	.	16c#	the	.	.	.	.	.
=39	=39	=39	=39	=39	=39	=39	=39	=39
2B-M	B-:maj	16d	dogs	1r	.	.	146.765	.
.	.	8d	of	.	.	.	.	.
.	.	16c#	so-	.	.	.	.	.
.	.	16d	-ci-	.	.	.	.	.
.	.	16B-	-e-	.	.	.	.	.
.	.	16F	-ty	.	.	.	.	.
.	.	[16A	howl	.	.	C	.	.
2FM	F:maj	4A]	_	.	.	.	148.744	.
.	.	8.r	.	.	.	.	.	.
.	.	16d	You	.	.	.	.	.
=40	=40	=40	=40	=40	=40	=40	=40	=40
2DMm	D:7	16a	can't	1r	.	.	150.723	newline
.	.	16r	.	.	.	.	.	.
.	.	16a	plant	.	.	.	.	.
.	.	16r	.	.	.	.	.	.
.	.	16a	me	.	.	.	.	.
.	.	16b-	in	.	.	.	.	.
.	.	16a	your	.	.	.	.	.
.	.	16g	pen-	.	.	.	.	.
2Gmm	G:min7	16r	.	.	.	.	152.701	.
.	.	8.d	-thouse	.	.	.	.	.
.	.	8.r	.	.	.	.	.	.
.	.	16d	I'm	.	.	.	.	.
=41	=41	=41	=41	=41	=41	=41	=41	=41
2CM	C:maj	16e	go-	1r	.	.	154.679	.
.	.	8e	-ing	.	.	.	.	.
.	.	[16e	back	.	.	.	.	.
.	.	16e]	_	.	.	.	.	.
.	.	16f	to	.	.	.	.	.
.	.	8g	my	.	.	.	.	.
4FM	F:maj	8f	plough	.	.	C	156.657	.
.	.	8r	.	.	.	.	.	.
4CM	C:maj/3	8.r	.	.	.	.	157.645	.
.	.	[16a	Back	.	.	.	.	.
=42	=42	=42	=42	=42	=42	=42	=42	=42
2Dmm	D:min7	16a]	_	1r	.	.	158.634	newline
.	.	8a	to	.	.	.	.	.
.	.	16a	the	.	.	.	.	.
.	.	16f	how-	.	.	C	.	.
.	.	16d	-ling	.	.	.	.	.
.	.	16A	old	.	.	.	.	.
.	.	[16e	owl	.	.	C	.	.
2AMm	A:7	16e]	_	.	.	.	160.61	.
.	.	16e	in	.	.	.	.	.
.	.	16e	the	.	.	.	.	.
.	.	[16e	woods	.	.	.	.	.
.	.	16e]	_	.	.	.	.	.
.	.	16r	.	.	.	.	.	.
.	.	8r	.	.	.	.	.	.
=43	=43	=43	=43	=43	=43	=43	=43	=43
*M2/4	*M2/4	*M2/4	*	*M2/4	*	*	*M2/4	*M2/4
2B-M	B-:maj	16f	Hun-	2r	.	.	162.585	.
.	.	16f	-ting	.	.	.	.	.
.	.	16f	the	.	.	.	.	.
.	.	[16d	hor-	.	.	.	.	.
.	.	16d]	_	.	.	.	.	.
.	.	16B-	-ny	.	.	.	.	.
.	.	8F	back	.	.	.	.	.
=44	=44	=44	=44	=44	=44	=44	=44	=44
*M4/4	*M4/4	*M4/4	*	*M4/4	*	*	*M4/4	*M4/4
1D-M	D-:maj	4.A-	toad	1r	.	D	164.56	.
.	.	8r	.	.	.	.	.	.
.	.	4r	.	.	.	.	.	.
.	.	16A-	Oh	.	.	.	.	.
.	.	8G	I've	.	.	.	.	.
.	.	[16F	fina-	.	.	.	.	.
=45	=45	=45	=45	=45	=45	=45	=45	=45
4FM	F:maj	16F]	_	1r	.	.	168.511	newline
.	.	16F	-lly	.	.	.	.	.
.	.	16F	de-	.	.	.	.	.
.	.	[16A	-ci-	.	.	.	.	.
4CM	C:maj/3	16A]	_	.	.	.	169.484	.
.	.	16A	-ded	.	.	.	.	.
.	.	8c	my	.	.	.	.	.
4Dm	D:min	16f	fu-	.	.	.	170.458	.
.	.	16f	-ture	.	.	.	.	.
.	.	8f	lies	.	.	.	.	.
4Dm	D:min/b7	8.r	.	.	.	.	171.432	.
.	.	16d	Be-	.	.	.	.	.
=46	=46	=46	=46	=46	=46	=46	=46	=46
*M2/4	*M2/4	*M2/4	*	*M2/4	*	*	*M2/4	*M2/4
4B-M	B-:maj	8.f	-yond	2r	.	.	172.405	.
.	.	16f	the	.	.	.	.	.
4CM	C:maj	16f	yel-	.	.	.	173.379	.
.	.	16g	-low	.	.	.	.	.
.	.	8e	brick	.	.	.	.	.
=47	=47	=47	=47	=47	=47	=47	=47	=47
*>Letter>C	*>Letter>C	*>Letter>C	*>Letter>C	*>Letter>C	*>Letter>C	*>Letter>C	*>Letter>C	*>Letter>C
*>Label>Chorus	*>Label>Chorus	*>Label>Chorus	*>Label>Chorus	*>Label>Chorus	*>Label>Chorus	*>Label>Chorus	*>Label>Chorus	*>Label>Chorus
*M4/4	*M4/4	*	*	*	*	*	*M4/4	*M4/4
2B-m	B-:min	4f	road	4dd-	Aah	D	174.353	newline
.	.	4r	.	4f	_	.	.	.
2E-M	E-:maj	2r	.	4.g	_	.	176.349	.
.	.	.	.	8r	.	.	.	.
=48	=48	=48	=48	=48	=48	=48	=48	=48
2A-M	A-:maj	1r	.	8.cc	Aah	.	178.346	.
.	.	.	.	16b-	_	.	.	.
.	.	.	.	8a-	_	.	.	.
.	.	.	.	8g	_	.	.	.
2D-M	D-:maj	.	.	4f	_	.	180.343	.
.	.	.	.	4r	.	.	.	.
=49	=49	=49	=49	=49	=49	=49	=49	=49
2B-m	B-:min	1r	.	4dd-	Aah	.	182.34	newline
.	.	.	.	4f	_	.	.	.
2CMm	C:7	.	.	2g	_	.	184.318	.
=50	=50	=50	=50	=50	=50	=50	=50	=50
1FM	F:maj	1r	.	2a;	Aah	.	186.296	.
.	.	.	.	2r	.	.	.	.
1r;	1r	r;	.	r;	.	.	192.726	.
1r;	1r	r;	.	r;	.	.	194.743	.
*-	*-	*-	*-	*-	*-	*-	*-	*-
!!!BillboardChartDate: 1973/11/03
!!!BillboardPeak: 2
!!!BillboardWeeksOnChart: 17
!!!COC: Elton John
!!!ENC: Nathaniel Condit-Schultz
!!!EST: Awating manual error checking and editing.
!!!OTL: Goodbye Yellow Brick Road
!!!RDF**chordsym: original McGill chord annotation + (implied pitch class set, with bass pitch in first position)
!!!RDF**harmony: **recip + pitch class of root + harmonic quality
!!!RDF**leadinstrument: original McGill primary instrumentation annotation
!!!RDF**phrase: newline = linebreak in original McGill transcription
!!!RDF**timestamp: McGill audio timestamp in seconds
!!!RDT: 2017/01/12/
!!!SampleActualRank: 40
!!!SampleID#: 0842
!!!SampleTargetRank: 38
!!!MBID: e492bc5b-469e-497b-903d-64a9713deee0